public/assets/images/bgcitysmall.svg

<svg xmlns="http://www.w3.org/2000/svg" width="375" height="236" viewBox="0 0 375 236">
  <path fill="#BBC4EF" d="M-401,178.532858 C-318.168037,145.212098 -230.786124,124.542272 -141.793073,117.218543 L-141.793073,87.1625064 L-133.128774,87.1625064 L-133.128774,103.753439 L-121.335702,103.753439 L-121.335702,70.8120224 L-117.484902,70.8120224 L-117.484902,58.7896077 L-99.6749556,58.7896077 L-99.6749556,69.6097809 L-91.4920071,69.6097809 L-91.4920071,110.966887 L-84.5124334,110.966887 L-84.5124334,93.1737137 L-75.848135,93.1737137 L-75.848135,114.092715 L-69.3499112,114.092715 L-69.3499112,37.1492613 L-56.4738011,24.2852776 L-56.4738011,83.7962303 L-44.3197158,83.7962303 L-44.3197158,115.535405 L-30.1198934,115.535405 L-30.1198934,53.7401936 L-19.0488455,53.7401936 L-19.0488455,63.117677 L-12.0692718,63.117677 L-12.0692718,108.562404 L0.927175844,108.562404 L0.927175844,82.1130922 L19.6998224,82.1130922 L19.6998224,108.562404 L33.4182948,108.562404 L33.4182948,84.0366786 L50.5062167,84.0366786 L50.5062167,106.879266 L72.8889876,106.879266 L72.8889876,65.52216 L81.0719361,57.346918 L86.60746,57.346918 L86.60746,44.3627101 L93.5870337,44.3627101 L93.5870337,57.5873663 L100.566607,57.5873663 L106.703819,63.7187978 L106.703819,103.217239 L116.21048,103.217239 L116.21048,84.7580234 L127.040853,84.7580234 L127.040853,66.4839531 L138.111901,55.4233316 L138.111901,78.2659195 L148.701599,78.2659195 L148.701599,52.0570555 L167.474245,52.0570555 L167.474245,66.9648497 L178.063943,66.9648497 L178.063943,85.9602649 L197.31794,85.9602649 L197.31794,40.8064799 L213.202487,40.8064799 L213.202487,78.0254712 L222.348135,78.0254712 L222.348135,9.016811 C222.348135,9.016811 223.07016,0 231.373446,0 C239.676732,0 240.278419,8.89658686 240.278419,8.89658686 L240.278419,81.6321956 L263.744227,81.6321956 L263.744227,71.8940397 L278.803259,71.8940397 L278.803259,78.0254712 L287.811723,78.0254712 L287.811723,67.4457463 L292.384547,67.4457463 L302.131883,57.7075904 L311.157194,57.7075904 L311.157194,67.4457463 L328.00444,67.4457463 L328.00444,59.030056 L332.697602,54.3413143 L332.697602,60.9536424 L336.428064,60.9536424 L336.428064,85.9602649 L346.777087,85.9602649 L346.777087,14.78757 L349.905861,14.78757 L349.905861,39.313296 L356.404085,39.313296 L356.404085,66.2435048 L367.234458,66.2435048 L367.234458,55.6637799 L373.973357,55.6637799 L373.973357,84.7580234 C420.965142,84.8782476 490.565933,91.0217015 567.957371,121.065716 C612.535187,138.377993 655.060044,159.376342 683,178.532858 L683,236 L-401,236 L-401,178.532858 Z" opacity=".25"/>
</svg>

<svg xmlns="http://www.w3.org/2000/svg" width="375" height="236"><path fill="#BBC4EF" d="M-401 178.533a890.18 890.18 0 0 1 259.207-61.314V87.163h8.664v16.59h11.793V70.812h3.851V58.79h17.81v10.82h8.183v41.357h6.98V93.174h8.664v20.919h6.498V37.149l12.876-12.864v59.511h12.154v31.74h14.2V53.74h11.071v9.378h6.98v45.444H.927V82.113H19.7v26.45h13.718V84.036h17.088v22.842H72.89V65.522l8.183-8.175h5.535V44.363h6.98v13.224h6.98l6.137 6.132v39.498h9.506V84.758h10.83V66.484l11.072-11.06v22.842h10.59V52.057h18.772v14.908h10.59V85.96h19.254V40.806h15.884v37.22h9.146V9.015S223.07 0 231.373 0c8.304 0 8.905 8.897 8.905 8.897v72.735h23.466v-9.738h15.06v6.131h9.008v-10.58h4.573l9.747-9.737h9.025v9.738h16.847V59.03l4.694-4.689v6.613h3.73V85.96h10.35V14.788h3.128v24.525h6.498v26.93h10.83v-10.58h6.74v29.095c46.991.12 116.592 6.264 193.983 36.308 44.578 17.312 87.103 38.31 115.043 57.467V236H-401v-57.467Z" opacity=".25"/></svg>
